!!!!SEGMENT: pl-kk--kk-i-6--037-003_palestrina-giovanni-pierluigi-da--missa-inviolata-patrem.krn
!!!cenid: 16xx:1018
!!!COM: Palestrina, Giovanni Pierluigi da
!!!COM-rismID: pe1904
!!!CDT: ~1525-1594/02/02
!!!CNT: Italian
!!!OPR: Missa Inviolata
!!!OTL: Patrem
!!!OMV: 003
!!!PDT:
!!!AGN: Sacred; Mass
!!!SMS-siglum: PL-Kk
!!!SMS-shelfmark: Kk.I.6
!!!SMS-shelfwork: 037-003 M
!!!SMS-variant:
!!!SMS-altvar:
!!!NIFC-rismSourceID: 1001136448
!!!NIFC-islandoraID: pl-kk:1634
!!!URL-pdf-islandora: https://repozytorium.nifc.pl/islandora/object/pl-kk%3A1634/datastream/PDF/view
!!!URL-scan: https://polish.musicsources.pl/pl/lokalizacje/galeria/rekopisy/6133 @EN{Scan on Polish Music Sources Website} @PL{Skany w portalu Dziedzictwo Muzyki Polskiej w otwartym dostępie}
!!!ONB-nifc: UWAGA: C (skan 0048-0049, s. 88-99), T (skan 0160-0161, s. 120-131), B (skan 0269-0272, s. 121-126) Części Mszy: 1. Kyrie, 2. Et in terra, 3. Patrem, 4. Sanctus, 5. Agnus Dei
!!!AIN: 1 empty 1 tenor 1 vox
!!!key:
**kern	**kern	**text	**kern	**text
*part3	*part2	*part2	*part1	*part1
*staff3	*staff2	*staff2	*staff1	*staff1
*Iempty	*Itenor	*	*Ivox	*
*I"Baſsus.	*I"Tenor.	*	*I"Cantus.	*
*I'B.	*I'T.	*	*I'C.	*
*clefF4	*clefC4	*	*clefC1	*
*k[b-]	*k[b-]	*	*k[b-]	*
*F:	*F:	*	*F:	*
*M2/1	*M2/1	*	*M2/1	*
*met(C|)	*met(C|)	*	*met(C|)	*
=1-	=1-	=1-	=1-	=1-
!LO:TX:a:t=P:problem= brak tej części w źródle	!	!	!	!
!	!LO:TX:t=P:problem=przed kluczem inicjał P	!	! PLO:TX:t=P:problem=przed kluczem inicjał P	!
0ryy	00r	.	00r	.
=2-	=2-	=2-	=2-	=2-
0ryy	.	.	.	.
=3-	=3-	=3-	=3-	=3-
0ryy	00r	.	1f	Pa-
.	.	.	2f/	-trem
.	.	.	2f/	om-
=4-	=4-	=4-	=4-	=4-
0ryy	.	.	1g	-ni-
.	.	.	1a	-po-
=5-	=5-	=5-	=5-	=5-
0ryy	0r	.	1.b-	-ten-
*	*	*	*2\right	*
.	.	.	2a\	.
=6-	=6-	=6-	=6-	=6-
0ryy	1r	.	0g	.
.	1c	Fac-	.	.
=7-	=7-	=7-	=7-	=7-
*	*2\right	*	*	*
0ryy	2c\	-to-	0a	-tem
.	2c\	-rem	.	.
.	1d	cae-	.	.
=8-	=8-	=8-	=8-	=8-
0ryy	2B-\	-li-	2r	.
.	2G/	-et	2g/	fac-
.	2.c\	ter-	2g/	-to-
.	.	.	2g/	-rem
.	4B-\	.	.	.
=9-	=9-	=9-	=9-	=9-
0ryy	4A/	.	1a	cae-
.	4G/	.	.	.
.	2A\	.	.	.
.	2B-\	.	2f/	-li
*	*	*	*custos:g	*
.	2A/	.	2d/	et
=10-	=10-	=10-	=10-	=10-
!	!	!	!LO:LB:g=original	!
0ryy	1G	.	2.g/	ter-
.	.	.	4f/	.
.	2A/	-r(ae)	1e	.
!	!LO:LB:g=original	!	!	!
.	2.G/	cae-	.	.
=11-	=11-	=11-	=11-	=11-
0ryy	.	.	1d	-r(ae)
.	4F/	.	.	.
.	1F	.	.	.
.	.	.	2re	.
.	4E/	.	1g\	vi-
.	4D/	.	.	.
=12-	=12-	=12-	=12-	=12-
0ryy	2E/	-li	.	.
.	2F/	et	2a\	-si-
.	1G	ter-	2b-\	-bi-
.	.	.	2g/	-li-
=13-	=13-	=13-	=13-	=13-
0ryy	1D	-rae	1a	-um
.	1rA	.	2.cc\	o-
.	.	.	4b-\	.
=14-	=14-	=14-	=14-	=14-
0ryy	2rF	.	4a\	.
.	.	.	4g/	.
.	1G	et	1b-	.
.	2A/	in	4a\	.
.	.	.	4g/	.
=15-	=15-	=15-	=15-	=15-
0ryy	2B-\	vi-	2f/	.
.	2G/	-si-	2.g/	.
.	2.A/	-bi-	.	.
.	.	.	4f/	.
.	.	.	1f/	.
.	4G/	.	.	.
=16-	=16-	=16-	=16-	=16-
0ryy	4A/	.	.	.
.	4B-\	.	.	.
.	1c	.	2e/	-mni-
*	*	*	*lig	*
.	.	.	1d	-um
.	4B-\	.	.	.
.	4A/	.	.	.
=17-	=17-	=17-	=17-	=17-
*	*custos:A	*	*custos:g	*
0ryy	2G/	.	1c	.
!	!LO:LB:g=original	!	!	!
.	2.A/	.	.	.
*	*	*	*Xlig	*
!	!	!	!LO:LB:g=original	!
.	.	.	0r	.
.	4G/	.	.	.
.	1B-\	.	.	.
=18-	=18-	=18-	=18-	=18-
0ryy	.	.	.	.
.	4A/	.	.	.
.	4G/	.	.	.
.	2F/	.	2r	.
.	2.G/	.	1g\	Et
=19-	=19-	=19-	=19-	=19-
0ryy	.	.	.	.
.	4C/	.	.	.
.	1F	.	2a\	in
.	.	.	2b-\	u-
.	2E/	-li-	2g/	-num
=20-	=20-	=20-	=20-	=20-
0ryy	1F	-um	2a\	Do-
.	.	.	2a\	-mi-
.	0r	.	2f/	-num
.	.	.	2g/	Je-
=21-	=21-	=21-	=21-	=21-
0ryy	.	.	2a\	-sum
*	*	*	*lig	*
.	.	.	1b-	Chri-
.	1r	.	.	.
.	.	.	1a\	.
*	*	*	*Xlig	*
=22-	=22-	=22-	=22-	=22-
0ryy	2rc	.	.	.
.	1d	Je-	2g/	.
.	.	.	1a	-stum
.	2c\	-sum	.	.
=23-	=23-	=23-	=23-	=23-
0ryy	2B-\	Chri-	0r	.
.	1A	.	.	.
.	2G/	.	.	.
=24-	=24-	=24-	=24-	=24-
0ryy	2F/	.	1r	.
.	2E/	.	.	.
.	4F/	.	2r	.
.	4G/	.	.	.
.	4A/	.	1a\	Fi-
*	*custos:c	*	*	*
.	4B-\	.	.	.
=25-	=25-	=25-	=25-	=25-
!	!LO:LB:g=original	!	!	!
0ryy	1c	-stum	.	.
.	.	.	2g/	-li-
.	2r	.	2a\	-um
.	1G/	Fi-	1b-\	De-
=26-	=26-	=26-	=26-	=26-
0ryy	.	.	.	.
.	2F/	-li-	2a\	-i
*	*	*	*custos:f	*
.	2G/	-um	2g/	u-
!	!	!	!LO:LB:g=original	!
.	1B-\	De-	2f/	-ni-
=27-	=27-	=27-	=27-	=27-
0ryy	.	.	2g/	-ge-
.	2A/	-i	2a\	.
.	2G/	u-	4d/	.
.	.	.	4e/	.
.	2F/	-ni-	4f/	.
.	.	.	4d/	.
=28-	=28-	=28-	=28-	=28-
*	*	*	*lig	*
0ryy	2G/	-ge-	1e	.
.	2A/	-ni-	.	.
.	1D	-tum	1.f	.
*	*	*	*Xlig	*
=29-	=29-	=29-	=29-	=29-
0ryy	2rF	.	.	.
.	1A	Et	4e/	.
.	.	.	4d/	.
.	.	.	2e/	.
.	2A/	ex	2c/	-ni-
=30-	=30-	=30-	=30-	=30-
0ryy	2G/	pa-	1d	-tum
.	2F/	-tre	.	.
.	1G	na-	1rg	.
=31-	=31-	=31-	=31-	=31-
0ryy	1A	-tum	2r	.
.	.	.	1a	an-
.	2F/	an-	.	.
*	*custos:c	*	*	*
.	2F/	-te	2a\	-te
=32-	=32-	=32-	=32-	=32-
!	!LO:LB:g=original	!	!	!
0ryy	2c\	o-	2g/	om-
.	2d\	-mni-	2f/	-ni-
.	2.c\	-a	1g	-a
.	4B-\	.	.	.
=33-	=33-	=33-	=33-	=33-
0ryy	2c\	.	2.a\	sae-
.	1d	Sae-	.	.
.	.	.	4g/	.
*	*	*	*custos:g	*
.	.	.	2f/	.
!	!	!	!LO:LB:g=original	!
.	2G/	-cu-	2g/	cu-
=34-	=34-	=34-	=34-	=34-
*	*	*	*lig	*
0ryy	1A	-la	1e	-la
.	2r	.	1d	.
.	2F/	De-	.	.
*	*	*	*Xlig	*
=35-	=35-	=35-	=35-	=35-
0ryy	2E/	-um	0ra	.
.	2D/	de	.	.
.	1E	De-	.	.
=36-	=36-	=36-	=36-	=36-
0ryy	1D	-o	1f	lu-
.	0r	.	2e/	-men
.	.	.	2d/	de
=37-	=37-	=37-	=37-	=37-
0ryy	.	.	2.e/	lu-
.	.	.	4f/	.
.	1r	.	2g/	.
.	.	.	2a\	.
=38-	=38-	=38-	=38-	=38-
0ryy	2r	.	2.g/	.
.	1d	De-	.	.
.	.	.	4f/	-mi-
.	.	.	2e/	-ne
.	2c\	-um	1a\	De-
=39-	=39-	=39-	=39-	=39-
0ryy	1B-	Ve-	.	.
.	.	.	2g/	-um
.	0A	-rum	1a	ve-
=40-	=40-	=40-	=40-	=40-
0ryy	.	.	2d/	-rum
.	.	.	2e/	de
.	1D	de	2f/	De-
*	*	*	*custos:a	*
.	.	.	2g/	-o
=41-	=41-	=41-	=41-	=41-
!	!	!	!LO:LB:g=original	!
0ryy	2E/	De-	1a	ve-
!	!LO:PB:g=original	!	!	!
.	2F/	-o	.	.
.	1G	ve-	2d/	-ro
.	.	.	2g/	de
=42-	=42-	=42-	=42-	=42-
0ryy	2.A/	.	2f/	De-
.	.	.	2d/	-o
.	4B-\	.	.	.
.	1c	-ro	2e/	ve-
.	.	.	2.f/	.
=43-	=43-	=43-	=43-	=43-
0ryy	2rc	.	.	.
.	.	.	4d/	.
.	2B-\	de	2.g/	.
.	2A/	De-	.	.
.	.	.	4f/	.
.	2F/	-o	1f/	.
=44-	=44-	=44-	=44-	=44-
0ryy	0G	ve-	.	.
.	.	.	4e/	.
.	.	.	4d/	.
.	.	.	1e	.
=45-	=45-	=45-	=45-	=45-
0ryy	0F	-ro	0f	-ro
=46-	=46-	=46-	=46-	=46-
0ryy	0rA	.	2re	.
.	.	.	1f	Ge-
.	.	.	2f/	-ni-
=47-	=47-	=47-	=47-	=47-
0ryy	2r	.	2g/	-tum
.	1c	ge-	2g/	non
.	.	.	2.a\	fa-
.	2c\	-ni-	.	.
*	*	*	*custos:a	*
.	.	.	4g/	.
=48-	=48-	=48-	=48-	=48-
!	!	!	!LO:PB:g=original	!
0ryy	2F/	-tum	4a\	.
.	.	.	4b-\	.
.	2A/	non	1cc	.
.	1G	fac-	.	.
.	.	.	2b-\	.
=49-	=49-	=49-	=49-	=49-
0ryy	1F	-tum	2.a\	.
.	.	.	4g/	.
.	0rF	.	2.f/	.
.	.	.	4e/	.
=50-	=50-	=50-	=50-	=50-
0ryy	.	.	1d	.
.	2rF	.	1c	-ctum
.	1F/	con	.	.
=51-	=51-	=51-	=51-	=51-
0ryy	.	.	0ra	.
.	2F/	ſub-	.	.
.	2G/	-stan-	.	.
*	*custos:A	*	*	*
.	2G/	-ti-	.	.
=52-	=52-	=52-	=52-	=52-
!	!LO:LB:g=original	!	!	!
0ryy	1A	-a-	2r	.
.	.	.	1f	pre-
.	2D/	-lem	.	.
.	2.F/	Pa-	2f/	-quem
=53-	=53-	=53-	=53-	=53-
0ryy	.	.	2g/	om-
.	8E/L	.	.	.
.	8D/J	.	.	.
.	2E/	.	2g/	-ni-
.	2F/	.	2a\	-a
.	2A/	.	2.cc\	fa-
=54-	=54-	=54-	=54-	=54-
0ryy	1G	-tri	.	.
.	.	.	8b-\L	.
.	.	.	8a\J	.
.	.	.	2b-\	.
.	00r	.	2g/	-cta
.	.	.	2a\	.
=55-	=55-	=55-	=55-	=55-
*	*	*	*custos:g	*
0ryy	.	.	2d/	sunt
!	!	!	!LO:LB:g=original	!
.	.	.	2.g/	fa-
.	.	.	.	.
.	.	.	8f/L	.
.	.	.	8e/J	.
.	.	.	2f/	.
=56-	=56-	=56-	=56-	=56-
0ryy	.	.	2.e/	.
.	.	.	8d/L	.
.	.	.	8c/J	.
.	1rA	.	1d	-cta
=57-	=57-	=57-	=57-	=57-
0ryy	2rF	.	1c	sunt
.	2F/	qui	.	.
.	2c\	pro-	0r	.
.	2c\	-pter	.	.
=58-	=58-	=58-	=58-	=58-
0ryy	2.d\	nos	.	.
.	4c\	.	.	.
.	2B-\	.	2re	.
.	2A/	.	2c/	et
=59-	=59-	=59-	=59-	=59-
0ryy	2G/	ho-	2g/	pro-
.	2G/	-mi-	2g/	-pter
.	1F	-nes	1a	noſ-
=60-	=60-	=60-	=60-	=60-
0ryy	0rA	.	2g/	-tram
.	.	.	2a\	sa-
.	.	.	2b-\	-lu-
.	.	.	2.a\	.
=61-	=61-	=61-	=61-	=61-
0ryy	2r	.	.	.
.	.	.	4g/	.
*	*custos:c	*	*	*
.	2F/	et	4a\	.
.	.	.	4f/	.
!	!LO:LB:g=original	!	!	!
.	2c\	pro-	1g	.
.	2c\	-pter	.	.
=62-	=62-	=62-	=62-	=62-
*	*	*	*custos:b	*
0ryy	1d	noſ-	1f	-tem
!	!	!	!LO:LB:g=original	!
.	2c\	-tram	1r	.
.	2d\	sa-	.	.
=63-	=63-	=63-	=63-	=63-
0ryy	1B-	-lu-	1b-	de-
.	0c	-tem	2a\	-ſcen-
.	.	.	2f/	-dit
=64-	=64-	=64-	=64-	=64-
0ryy	.	.	2g/	de
.	.	.	1a	cae-
.	2rc	.	.	.
.	2f\	deſ-	4g/	.
.	.	.	4f/	.
=65-	=65-	=65-	=65-	=65-
0ryy	2e\	-cen-	2g/	.
.	2c\	-dit	2a\	.
.	1d	de	2f/	.
.	.	.	2.g/	.
=66-	=66-	=66-	=66-	=66-
0ryy	2c\	cae-	.	.
.	.	.	4f/	.
.	2A/	.	1f	.
.	1B-	-lis	.	.
.	.	.	2e/	.
=67-	=67-	=67-	=67-	=67-
0ryy	2r	.	0f	-lis
.	2c\	deſ-	.	.
.	2B-\	-cen-	.	.
.	2.A/	-dit	.	.
=68-	=68-	=68-	=68-	=68-
0ryy	.	.	0r	.
.	4G/	.	.	.
.	2E/	.	.	.
*	*custos:G	*	*	*
.	2F/	.	.	.
!	!LO:LB:g=original	!	!	!
.	2.G/	de	.	.
=69-	=69-	=69-	=69-	=69-
0ryy	.	.	1cc	de-
.	4F/	.	.	.
.	2.F/	cae-	.	.
.	.	.	2b-\	-ſcen-
.	8E/L	.	.	.
.	8D/J	.	.	.
.	2E/	.	2g/	-dit
=70-	=70-	=70-	=70-	=70-
0ryy	1F	-lis	1a	de
*	*	*	*custos:e	*
.	1G	d[e]	2g/	cae-
!	!	!	!LO:LB:g=original	!
.	.	.	2e/	.
=71-	=71-	=71-	=71-	=71-
0ryy	2.A/	cae-	0f	.
.	4B-\	.	.	.
.	1c	-lis	.	.
=72-	=72-	=72-	=72-	=72-
0ryy	1c	.	1e	-lis
.	1r	.	1rg	.
=73-	=73-	=73-	=73-	=73-
0ryy	0G	Et	0e	Et
=74-	=74-	=74-	=74-	=74-
0ryy	1G	in-	1e	in-
.	1A	-car-	1e	-car-
=75-	=75-	=75-	=75-	=75-
0ryy	1A	-na-	1f	-na-
.	1B-	-tus	1f	-tus
=76-	=76-	=76-	=76-	=76-
0ryy	1G	eſt	1e	est
.	1rA	.	1rg	.
=77-	=77-	=77-	=77-	=77-
0ryy	1G	de	1e	de
.	1.A	spi-	1.f	spi-
=78-	=78-	=78-	=78-	=78-
0ryy	.	.	.	.
.	2A/	-ri-	2f/	-ri-
*	*custos:B	*	*	*
.	1A	-tu	1f	-tu
=79-	=79-	=79-	=79-	=79-
!	!LO:LB:g=original	!	!	!
0ryy	0B-	san-	0g	san-
=80-	=80-	=80-	=80-	=80-
0ryy	1c	-cto	1a	-cto
.	1r	.	1r	.
=81-	=81-	=81-	=81-	=81-
!	!LO:TX:t=P:problem= odbita kropka tuszu	!	!	!
0ryy	1.c	Ex	1.a	ex
*	*	*	*custos:a	*
.	2c\	Ma-	2a\	Ma-
=82-	=82-	=82-	=82-	=82-
!	!	!	!LO:LB:g=original	!
0ryy	1d	-ri-	1a	-ri-
.	1c	-a	1a	-a
=83-	=83-	=83-	=83-	=83-
0ryy	1.B-	Vir-	1g	Vir-
.	.	.	1f	-gi-
.	2A/	-gi-	.	.
=84-	=84-	=84-	=84-	=84-
0ryy	1G	-ne	1e	-ne
.	1rA	.	1rg	.
=85-	=85-	=85-	=85-	=85-
0ryy	0G	Et	0e	Et
=86-	=86-	=86-	=86-	=86-
0ryy	1A	Ho-	1e	Ho-
.	1A	-mo	1f	-mo
=87-	=87-	=87-	=87-	=87-
0ryy	1.B-	fa-	1g	da-
.	.	.	1.f	.
.	2A/	.	.	.
=88-	=88-	=88-	=88-	=88-
0ryy	0G	-ctus	.	.
.	.	.	4e/	.
.	.	.	4d/	.
.	.	.	1e	-ctus
=89-	=89-	=89-	=89-	=89-
0ryy	0F;<	eſt	0f;<	eſt
=90||	=90||	=90||	=90||	=90||
*M2/1	*M2/1	*	*M2/1	*
*met(C|)	*met(C|)	*	*met(C|)	*
!	!LO:TX:t=P:problem=przed kluczem inicjał C	!	!LO:TX:t=P:problem=przed kluczem inicjał C	!
!	!LO:LB:g=original	!	!LO:LB:g=original	!
0ryy	00r	.	00r	.
=91-	=91-	=91-	=91-	=91-
0ryy	.	.	.	.
=92-	=92-	=92-	=92-	=92-
0ryy	00r	.	0f	Cru-
=93-	=93-	=93-	=93-	=93-
0ryy	.	.	1a	-ci-
.	.	.	1b-	-fix-
=94-	=94-	=94-	=94-	=94-
0ryy	0F	Cru-	0a	-us
=95-	=95-	=95-	=95-	=95-
0ryy	1A	-ci-	2r	.
.	.	.	1a	e-
.	1B-	-fi-	.	.
.	.	.	2g/	-ti-
=96-	=96-	=96-	=96-	=96-
0ryy	1A	-xus	1a	-am
.	2r	.	2b-\	pro
.	1A\	e-	1cc\	no-
=97-	=97-	=97-	=97-	=97-
0ryy	.	.	.	.
.	2G/	-ti-	2b-\	.
.	1A	-am	1a	.
=98-	=98-	=98-	=98-	=98-
0ryy	2B-\	pro	0g	-bis
.	1c	no-	.	.
.	4B-\	.	.	.
.	4A/	.	.	.
=99-	=99-	=99-	=99-	=99-
0ryy	4B-\	.	2r	.
.	4A/	.	.	.
.	4G/	.	2g/	sub
.	4F/	.	.	.
.	4E/	.	2g/	Pon-
.	4D/	.	.	.
.	2E/	.	2g/	-ti-
=100-	=100-	=100-	=100-	=100-
*	*custos:F	*	*custos:cc	*
0ryy	1F	-bis	2a\	-o
!	!	!	!LO:LB:g=original	!
.	.	.	2cc\	Pi-
!	!LO:LB:g=original	!	!	!
.	1r	.	4b-\	-la-
.	.	.	4a\	.
.	.	.	4a\	.
.	.	.	8g/L	.
.	.	.	8f/J	.
=101-	=101-	=101-	=101-	=101-
0ryy	2r	.	2.g/	.
.	2G/	sub	.	.
.	.	.	4a\	.
.	2G/	Pon-	1b-	.
.	2G/	-ti-	.	.
=102-	=102-	=102-	=102-	=102-
0ryy	2A/	-o	2a\	.
.	2c\	Pi-	2.g/	.
.	1B-	-la-	.	.
.	.	.	4f/	.
.	.	.	2d/	.
=103-	=103-	=103-	=103-	=103-
0ryy	1A	-to	2.e/	.
.	.	.	4d/	.
.	2r	.	2e/	.
.	1d\	paſ-	2f/	.
=104-	=104-	=104-	=104-	=104-
0ryy	.	.	1e	-to
.	2c\	-sus	.	.
.	2.d\	et	0f	Pi-
.	4c\	.	.	.
=105-	=105-	=105-	=105-	=105-
0ryy	2B-\	.	.	.
.	2A/	se-	.	.
.	2B-\	-pul-	1g	-la-
.	2c\	-tus	.	.
=106-	=106-	=106-	=106-	=106-
0ryy	0F	eſt	1.a	-to
.	.	.	1a\	Paſ-
=107-	=107-	=107-	=107-	=107-
0ryy	0rA	.	.	.
*	*	*	*custos:a	*
.	.	.	2g/	-sus
!	!	!	!LO:PB:g=original	!
.	.	.	2.a\	et
.	.	.	4g/	.
=108-	=108-	=108-	=108-	=108-
0ryy	2r	.	2f/	.
.	1A	Paſ-	2e/	se-
.	.	.	2f/	-pul-
*	*custos:A	*	*	*
.	2G/	-sus	2g/	-tus
=109-	=109-	=109-	=109-	=109-
!	!LO:PB:g=original	!	!	!
0ryy	2.A/	et	2e/	eſt
.	.	.	2a\	Paſ-
.	4G/	.	.	.
.	2F/	.	2a\	-sus
.	2E/	se-	2.g/	et
=110-	=110-	=110-	=110-	=110-
0ryy	2F/	-pul-	.	.
.	.	.	4f/	se-
.	2D/	.	1f	-pul-
.	1C	-tus	.	.
.	.	.	2e/	-tus
=111-	=111-	=111-	=111-	=111-
0ryy	1F	eſt	0f	eſt
.	2rF	.	.	.
.	2F/	et	.	.
=112-	=112-	=112-	=112-	=112-
0ryy	2F/	re-	1rg	.
.	2F/	-ſur-	.	.
.	1B-	-re-	1f	et
=113-	=113-	=113-	=113-	=113-
0ryy	2A/	-xit	2f/	re-
.	2.B-\	ter-	2f/	-ſur-
.	.	.	1b-	-re-
.	4A/	.	.	.
.	2G/	.	.	.
=114-	=114-	=114-	=114-	=114-
*	*	*	*custos:cc	*
0ryy	2F/	ti-	2a\	-xit
!	!	!	!LO:LB:g=original	!
.	2E/	-a	2.cc\	ter-
.	0F	di-	.	.
.	.	.	4b-\	.
.	.	.	4a\	.
.	.	.	4g/	.
=115-	=115-	=115-	=115-	=115-
0ryy	.	.	2a\	.
.	.	.	2a\	-ti-
.	2C,</	-e	2g/	-a
.	2F/	et	2.a\	di-
=116-	=116-	=116-	=116-	=116-
*	*custos:B	*	*	*
0ryy	2A/	re-	.	.
.	.	.	4g/	.
!	!LO:LB:g=original	!	!	!
.	2B-\	-ſur-	2f/	.
.	2c\	-re-	2e/	.
.	2.d\	.	2d/	.
=117-	=117-	=117-	=117-	=117-
0ryy	.	.	2.e/	.
.	4c\	.	.	.
.	1c	.	.	.
.	.	.	8d/L	.
.	.	.	8c/J	.
.	.	.	1d	.
.	2B-\	.	.	.
=118-	=118-	=118-	=118-	=118-
0ryy	4c\	.	1e	-e
.	4B-\	.	.	.
.	4A/	.	.	.
.	4G/	.	.	.
.	2A/	.	1rg	.
.	2F/	-xit	.	.
=119-	=119-	=119-	=119-	=119-
0ryy	2.G/	ter-	2r	.
.	.	.	1g	se-
.	4F/	-ti-	.	.
.	2E/	-a	.	.
.	2F/	di-	1a\	-cun-
=120-	=120-	=120-	=120-	=120-
0ryy	1D	-e	.	.
*	*	*	*custos:g	*
.	.	.	2f/	-dum
!	!	!	!LO:LB:g=original	!
.	0rF	.	1g	scrip-
=121-	=121-	=121-	=121-	=121-
0ryy	.	.	2.a\	-tu-
.	.	.	4g/	.
.	2r	.	2f/	.
.	1G/	se-	2.g/	.
=122-	=122-	=122-	=122-	=122-
0ryy	.	.	.	.
.	.	.	4f/	.
.	1A	-cun-	4e/	.
.	.	.	4d/	.
.	.	.	2e/	.
.	2F/	-dum	2f/	.
=123-	=123-	=123-	=123-	=123-
0ryy	1G	scrip-	2.d/	.
.	.	.	4e/	.
.	2.A/	-tu-	2f/	.
.	.	.	2e/	.
*	*custos:F	*	*	*
.	4G/	.	.	.
=124-	=124-	=124-	=124-	=124-
!	!LO:LB:g=original	!	!	!
0ryy	2F/	.	1d	.
.	2G/	.	.	.
.	2E/	-ras	1c	-ras
.	2.A/	scri-	.	.
=125-	=125-	=125-	=125-	=125-
0ryy	.	.	2re	.
.	4G/	.	.	.
.	2.F/	.	1f	et
.	4D/	.	.	.
.	2E/	.	2g/	aſ-
=126-	=126-	=126-	=126-	=126-
0ryy	1F	-ptu-	1a	-cen-
.	1C	-ras	2g/	-dit
*	*	*	*custos:cc	*
.	.	.	2g/	in
=127-	=127-	=127-	=127-	=127-
!	!	!	!LO:LB:g=original	!
0ryy	1rF	.	2.cc\	cae-
.	.	.	4b-\	.
.	2rF	.	4a\	.
.	.	.	4g/	.
.	1F/	Et	1a\	.
=128-	=128-	=128-	=128-	=128-
0ryy	.	.	.	.
.	2G/	aſ-	4g/	.
.	.	.	4f/	.
*	*	*	*lig	*
.	1A	-cen-	1e	.
=129-	=129-	=129-	=129-	=129-
0ryy	2F/	-dit	1a	.
.	2F/	in	.	.
*	*	*	*Xlig	*
.	2.c\	cae-	1g	-lum
.	4B-\	.	.	.
=130-	=130-	=130-	=130-	=130-
0ryy	1A	.	2r	.
.	.	.	2cc\	se-
.	2G/	-lum	2b-\	-det
.	2A/	in	2cc\	ad
=131-	=131-	=131-	=131-	=131-
0ryy	4F/	cae-	2.a\	dex-
*	*custos:A	*	*	*
.	4G/	.	.	.
!	!LO:LB:g=original	!	!	!
.	4A/	.	.	.
.	4B-\	.	4a\	-te-
.	2c\	.	2g/	-ram
.	2F/	-lum	2.a\	Pa-
=132-	=132-	=132-	=132-	=132-
0ryy	0r	.	.	.
.	.	.	4g/	.
.	.	.	4a\	.
.	.	.	4b-\	.
*	*	*	*custos:g	*
.	.	.	1a	.
=133-	=133-	=133-	=133-	=133-
!	!	!	!LO:LB:g=original	!
0ryy	1c	se-	0g	-tris
.	2B-\	-det	.	.
.	2c\	ad	.	.
=134-	=134-	=134-	=134-	=134-
0ryy	2.A/	dex-	2r	.
.	.	.	2cc\	se-
.	4A/	-te-	.	.
.	2G/	-ram	2b-\	-det-
.	2.A/	pa-	2cc\	-ad
=135-	=135-	=135-	=135-	=135-
0ryy	.	.	2.a\	dex-
.	4G/	.	.	.
.	4A/	.	.	.
.	4B-\	.	4a\	-te-
.	2c\	.	2g/	-ram
.	2F/	-tris	1a\	pa-
=136-	=136-	=136-	=136-	=136-
0ryy	2r	.	.	.
.	2B-\	se-	2f/	.
.	2A/	-det	1f	-tris
.	2B-\	ad	.	.
=137-	=137-	=137-	=137-	=137-
0ryy	2.G/	dex-	2r	.
.	.	.	2b-\	se-
.	4G/	-te-	.	.
.	2F/	-ram	2a\	-det
.	4G/	Pa-	2b-\	ad
*	*custos:g	*	*	*
.	4F/	.	.	.
=138-	=138-	=138-	=138-	=138-
!	!LO:LB:g=original	!	!	!
0ryy	4G/	.	2.g/	dex-
.	4A/	.	.	.
.	1B-	.	.	.
.	.	.	4g/	-te-
.	.	.	0f	-ram
.	2A/	.	.	.
=139-	=139-	=139-	=139-	=139-
0ryy	2B-\	.	.	.
.	2d\	-tris	.	.
.	1c	.	1g	pa-
=140-	=140-	=140-	=140-	=140-
0ryy	0F	Pa-	0a	.
=141-	=141-	=141-	=141-	=141-
0ryy	0c;<	-tris	0g;<	-tris
=142||	=142||	=142||	=142||	=142||
*M2/1	*M2/1	*	*M2/1	*
*met(C|)	*met(C|)	*	*met(C|)	*
!	!LO:TX:t=P:problem=przed metrum inicjał E	!	!LO:TX:t=P:problem=przed kluczem inicjał E	!
!	!	!	!LO:TX:b:t=Et iterum	!
!	!	!	!LO:LB:g=original	!
0ryy	1c	ET	00r	.
.	2c\	i-	.	.
.	2c\	-te-	.	.
=143-	=143-	=143-	=143-	=143-
0ryy	2A/	-rum	.	.
.	2F/	ven-	.	.
.	2.G/	-tu-	.	.
.	4A/	.	.	.
=144-	=144-	=144-	=144-	=144-
0ryy	2B-\	.	0r	.
.	1A	.	.	.
.	2G/	rus	.	.
=145-	=145-	=145-	=145-	=145-
0ryy	0A	eſt	1a	Cum
.	.	.	2a\	glo-
.	.	.	2a\	-ri-
=146-	=146-	=146-	=146-	=146-
!	!LO:LB:g=original	!	!	!
0ryy	0r	.	2g/	-a
.	.	.	2e/	iu-
.	.	.	1f	-di-
=147-	=147-	=147-	=147-	=147-
0ryy	1r	.	1d	-ca-
.	2r	.	1c	-re
.	2A/	vi-	.	.
=148-	=148-	=148-	=148-	=148-
0ryy	2A/	-vos	1re	.
.	2B-\	et	.	.
.	1.c	mor-	1e	vi-
=149-	=149-	=149-	=149-	=149-
0ryy	.	.	2e/	-vos
.	4B-\	.	2f/	et
.	4A/	.	.	.
.	2B-\	.	1.g	mor-
.	2B-\	-tu-	.	.
=150-	=150-	=150-	=150-	=150-
0ryy	1A	-os	.	.
.	.	.	4f/	.
.	.	.	4e/	.
.	2rc	.	2f/	.
*	*	*	*custos:e	*
.	1d\	cu-	2f/	-tu-
=151-	=151-	=151-	=151-	=151-
!	!	!	!LO:LB:g=original	!
0ryy	.	.	1e	-os
.	2c\	-ius	.	.
.	1f	re-	0ra	.
=152-	=152-	=152-	=152-	=152-
0ryy	1e	-gni	.	.
.	1d	non	2r	.
.	.	.	1a\	cu-
=153-	=153-	=153-	=153-	=153-
0ryy	2c\	e-	.	.
.	2B-\	-rit	2g/	-ius
.	1A	fi-	1cc	re-
=154-	=154-	=154-	=154-	=154-
0ryy	2G/	-nis	2b-\	-gni
.	2F/	non	2a\	non
*	*custos:d	*	*	*
.	2c\	e-	2g/	e-
!	!LO:LB:g=original	!	!	!
.	2d\	-rit	2f/	-rit
=155-	=155-	=155-	=155-	=155-
0ryy	1A	fi-	1e	fi-
.	0d	-nis	2d/	-nis
.	.	.	1b-\	Et
=156-	=156-	=156-	=156-	=156-
0ryy	.	.	.	.
.	.	.	2b-\	in
.	1r	.	2a\	spi-
.	.	.	2g/	-ri-
=157-	=157-	=157-	=157-	=157-
0ryy	2r	.	4f/	-tum
.	.	.	4e/	.
.	1F	san-	4d/	.
.	.	.	4c/	.
.	.	.	1d	.
.	2F/	-ctum	.	.
=158-	=158-	=158-	=158-	=158-
0ryy	2G/	Do-	1rg	.
.	2G/	-mi-	.	.
.	1A	-num	2r	.
*	*	*	*custos:a	*
.	.	.	1a\	et
=159-	=159-	=159-	=159-	=159-
0ryy	1.c	Et	.	.
!	!	!	!LO:PB:g=original	!
.	.	.	2a\	vi-
.	.	.	2a\	-vi-
.	2c\	vi-	1g\	-fi-
=160-	=160-	=160-	=160-	=160-
0ryy	2B-\	-vi-	.	.
.	2A/	-fi-	2.f/	-can-
*	*lig	*	*	*
.	1G	-can-	.	.
.	.	.	8e/L	.
.	.	.	8d/J	.
.	.	.	2e/	.
=161-	=161-	=161-	=161-	=161-
0ryy	1F	.	2f/	.
.	.	.	2a\	.
*	*Xlig	*	*	*
.	1C	-tem	1g	.
=162-	=162-	=162-	=162-	=162-
0ryy	2rF	.	1f	-tem
.	2F/	qui	.	.
.	2G/	ex	0r	.
*	*custos:A	*	*	*
.	1B-\	Pa-	.	.
=163-	=163-	=163-	=163-	=163-
0ryy	.	.	.	.
!	!LO:PB:g=original	!	!	!
.	2A/	-tre	.	.
.	2G/	Fi-	2r	.
.	2G/	-li-	2c/	Qui
=164-	=164-	=164-	=164-	=164-
0ryy	2.F/	-o	2d/	cum
.	.	.	1f	Pa-
.	4G/	.	.	.
.	4A/	.	.	.
.	4B-\	.	.	.
.	2c\	.	2e/	-tre
=165-	=165-	=165-	=165-	=165-
0ryy	2B-\	que	1f	et
.	2A/	pro-	.	.
.	1G	-ce-	2g/	Fi-
.	.	.	2g/	-li-
=166-	=166-	=166-	=166-	=166-
0ryy	1F	-dit	2c/	-o
.	.	.	2f/	et
.	1rA	.	2e/	Fi-
!	!	!	!LO:LB:g=original	!
.	.	.	4d/	.
.	.	.	4e/	.
=167-	=167-	=167-	=167-	=167-
0ryy	2r	.	4f/	.
.	.	.	4g/	.
.	1A	si-	4a\	.
.	.	.	4b-\	.
.	.	.	2cc\	.
.	2A/	-mul	2a\	-li-
=168-	=168-	=168-	=168-	=168-
0ryy	2B-\	a-	1g	-o
.	2c\	-do-	.	.
.	0d	-ra-	2re	.
.	.	.	1f/	si-
=169-	=169-	=169-	=169-	=169-
0ryy	.	.	.	.
.	.	.	2f/	-mul
.	1c	-tur	2g/	a-
.	.	.	2a\	-do-
=170-	=170-	=170-	=170-	=170-
0ryy	1B-	et	1b-	-ra-
.	2c\	con-	1a	-tur
.	2A/	-glo-	.	.
=171-	=171-	=171-	=171-	=171-
!	!LO:LB:g=original	!	!	!
0ryy	2B-\	-ri-	2r	.
.	2c\	-fi-	2a\	et
.	1d	-ca-	2f/	con-
.	.	.	2g/	-glo-
=172-	=172-	=172-	=172-	=172-
0ryy	1c	-tur	2.a\	-ri-
.	.	.	4g/	.
.	1r	.	2f/	.
.	.	.	2e/	.
=173-	=173-	=173-	=173-	=173-
*	*	*	*custos:c	*
0ryy	2rc	.	2d/	-fi-
!	!	!	!LO:LB:g=original	!
.	1A	qui	2c/	-ca-
.	.	.	1f	-tur
.	2B-\	lo-	.	.
=174-	=174-	=174-	=174-	=174-
0ryy	2.c\	-cu-	2r	.
.	.	.	1e	qui
.	4c\	-tus	.	.
.	2c\	eſt	.	.
.	2d\	per	2f/	lo-
=175-	=175-	=175-	=175-	=175-
0ryy	2B-\	Pro-	2.g/	-cu-
.	2.c\	-phe-	.	.
.	.	.	4g/	-tus
.	.	.	2g/	eſt
.	4B-\	.	.	.
.	4A/	.	2a\	per
.	4G/	.	.	.
=176-	=176-	=176-	=176-	=176-
0ryy	2A/	.	2f/	pro-
.	2.B-\	.	2.g/	-phe-
.	4A/	.	4f/	.
.	2F/	.	1f/	.
=177-	=177-	=177-	=177-	=177-
0ryy	1G	.	.	.
.	.	.	2e/	.
.	0F	.	1f	-tas
=178-	=178-	=178-	=178-	=178-
0ryy	.	.	1rg	.
*	*custos:C	*	*	*
.	1C	-tas	2r	.
.	.	.	2g/	Et
=179-	=179-	=179-	=179-	=179-
!	!LO:LB:g=original	!	!	!
0ryy	0r	.	2g/	A-
.	.	.	2f/	-po-
.	.	.	2e/	-sto-
.	.	.	2e/	-li-
=180-	=180-	=180-	=180-	=180-
*	*	*	*custos:e	*
0ryy	1r	.	1d	-cam
!	!	!	!LO:LB:g=original	!
.	2rc	.	2e/	Ec-
.	2c\	et	4c/	-cle-
.	.	.	4d/	.
=181-	=181-	=181-	=181-	=181-
0ryy	2c\	A-	4e/	.
.	.	.	4f/	.
.	2B-\	-po-	2g/	.
.	2A/	-sto-	4f/	.
.	.	.	4e/	.
.	2A/	-li-	4e/	.
.	.	.	8d/L	.
.	.	.	8c/J	.
=182-	=182-	=182-	=182-	=182-
0ryy	1G	-cam	2d/	.
.	.	.	2d/	-si-
.	2A/	Ec-	1c	-am
.	4F/	-cle-	.	.
.	4G/	.	.	.
=183-	=183-	=183-	=183-	=183-
0ryy	4A/	.	0r	.
.	4B-\	.	.	.
.	1c	.	.	.
.	2B-\	-si-	.	.
=184-	=184-	=184-	=184-	=184-
0ryy	1c	-am	1rg	.
.	1r	.	2r	.
.	.	.	2f/	Con-
=185-	=185-	=185-	=185-	=185-
0ryy	2rc	.	2f/	-fi-
.	2c\	Con-	2e/	-te-
.	2c\	-fi-	2f/	-or
.	2B-\	-te-	2g/	u-
=186-	=186-	=186-	=186-	=186-
0ryy	2c\	-or	2a\	-num
.	2d\	U-	2a\	Bap-
.	1B-	-num	1b-	-tis-
=187-	=187-	=187-	=187-	=187-
*	*custos:d	*	*custos:a	*
0ryy	1c	Ba-	1a	-ma
!	!LO:LB:g=original	!	!LO:LB:g=original	!
.	1d	-pti-	2r	.
.	.	.	1a\	in
=188-	=188-	=188-	=188-	=188-
0ryy	2A,/	-sma	.	.
.	1A	in	2a\	re-
.	.	.	2.cc\	-miſ-
.	2A/	re-	.	.
.	.	.	4b-\	-si-
=189-	=189-	=189-	=189-	=189-
0ryy	2.c\	-miſ-	2a\	-o-
.	.	.	2g/	-nem
.	4B-\	[si]	.	.
.	2A/	-o-	2f/	pec-
.	2G/	-nem	2e/	-ca-
=190-	=190-	=190-	=190-	=190-
0ryy	2F/	pec-	2a\	-to-
.	2E/	-ca-	2.g/	.
.	1A	-to-	.	.
.	.	.	4f/	.
.	.	.	1f/	.
=191-	=191-	=191-	=191-	=191-
0ryy	0G	-rum	.	.
.	.	.	4e/	.
.	.	.	4d/	.
.	.	.	1e	.
=192-	=192-	=192-	=192-	=192-
0ryy	2r	.	1f,<	-rum
.	1F	Et	.	.
.	.	.	1g	et
.	2E/	ex-	.	.
=193-	=193-	=193-	=193-	=193-
0ryy	2F/	-pec-	1a	ex-
.	4E/	.	.	.
.	4D/	.	.	.
.	2.E/	.	1g	-pec-
.	4F/	.	.	.
=194-	=194-	=194-	=194-	=194-
0ryy	1G	.	2e/	-to
.	.	.	1g	re-
*	*custos:c	*	*	*
.	2C/	-cto	.	.
*	*	*	*custos:g	*
!	!LO:LB:g=original	!	!	!
.	1c\	re-	2g/	-ſur
=195-	=195-	=195-	=195-	=195-
!	!	!	!LO:LB:g=original	!
0ryy	.	.	2g/	re-
.	2c\	-ſur-	2g/	-cti-
.	2c\	-re-	1a	-o-
.	2c\	-cti-	.	.
=196-	=196-	=196-	=196-	=196-
0ryy	1d	-o-	2f/	-nem
.	.	.	1b-	mor-
.	2c\	-nem	.	.
.	2f\	mor-	1a\	-tu-
=197-	=197-	=197-	=197-	=197-
0ryy	2e\	-tu-	.	.
.	2.d\	-o-	1g	-o-
.	4c\	.	.	.
.	1c\	.	2f/	.
=198-	=198-	=198-	=198-	=198-
0ryy	.	.	0g	-rum
.	4B-\	.	.	.
.	4A/	.	.	.
.	1B-	.	.	.
=199-	=199-	=199-	=199-	=199-
0ryy	1c	-rum	2r	.
.	.	.	2g/	Et
.	1r	.	1cc	Vi-
=200-	=200-	=200-	=200-	=200-
0ryy	1F	Et	2a\	-tam
.	.	.	2f/	ven-
.	1c	vi-	2g/	-tur-
.	.	.	2e/	-i
=201-	=201-	=201-	=201-	=201-
0ryy	2B-\	-tam	2f/	sae-
.	2G/	ven-	2g/	-cu-
.	1A	-tu-	2e/	-li
.	.	.	1f/	A-
=202-	=202-	=202-	=202-	=202-
0ryy	1G	-ri	.	.
.	.	.	2e/	.
*	*custos:F	*	*	*
.	2A/	sae-	2c/	.
!	!LO:LB:g=original	!	!	!
.	2F/	-cu-	2.d/	.
=203-	=203-	=203-	=203-	=203-
0ryy	2G/	-li	.	.
*	*	*	*custos:c	*
.	.	.	4c/	.
!	!	!	!LO:LB:g=original	!
.	1A	A-	1c	.
.	4G/	.	2B-/	.
.	4F/	.	.	.
=204-	=204-	=204-	=204-	=204-
0ryy	2G/	.	1c	-men
.	2E/	.	.	.
.	2F/	.	1rg	.
.	2.G/	.	.	.
=205-	=205-	=205-	=205-	=205-
0ryy	.	.	2re	.
.	4F/	.	.	.
.	1F	.	2f/	et
.	.	.	1b-	Vi-
.	2E/	.	.	.
=206-	=206-	=206-	=206-	=206-
0ryy	2F/	-men	2a\	-tam
.	2F/	Et	2f/	ven-
.	1c	vi-	1g	-tu-
=207-	=207-	=207-	=207-	=207-
0ryy	2A/	-tam	1a	-ri
.	2F/	ven-	.	.
.	1G	-tu-	2g/	sae-
.	.	.	2e/	-cu-
=208-	=208-	=208-	=208-	=208-
0ryy	1F	-ri	1f	-li
.	2G/	sae-	1e	A-
.	2A/	-cu-	.	.
=209-	=209-	=209-	=209-	=209-
*	*lig	*	*	*
0ryy	1B-	-li	2d/	-men
*	*	*	*	*ij
.	.	.	2.g/	A-
.	1A	A-	.	.
.	.	.	4f/	.
.	.	.	1f/	.
*	*Xlig	*	*	*
=210-	=210-	=210-	=210-	=210-
0ryy	0G	.	.	.
.	.	.	4e/	.
.	.	.	4d/	.
.	.	.	1e	.
=211-	=211-	=211-	=211-	=211-
0ryy	0F;<	-men	0f;<	-men
*	*	*	*	*Xij
!	!LO:LB:g=original	!	!LO:PB:g=original	!
=-	=-	=-	=-	=-
*-	*-	*-	*-	*-
!!!system-decoration: [(s1,s2,s3)]
!!!RDF**kern: < = below
!!!RDF**kern: > = above
!!!ENC: Marta Chmielewska
!!!END: 2021-03-23
!!!ENC: Berenika Jozajtis
!!!END: 2021-03-10
!!!YEC: Copyright 2022 Narodowy Instytut Fryderyka Chopina (https://polishscores.org)
!!!YEM: Licence CC BY 4.0 (https://creativecommons.org/licenses/by/4.0)
